!!!COM: Music21
!!!OTL: waltz_Paddys-Perambulations
!!!OMV: waltz_Paddys-Perambulations
**kern
*clefG2
*k[f#]
*G:
*M3/4
=1
8ff#
8gg
8ff#
=
8ddL
8eeJ
8eeL
8ddJ
8bL
8gJ
=
4a
8aL
8gJ
8aL
8ddJ
=
8aL
8bJ
8bL
8aJ
8aL
8gJ
=
4a
8aL
8gJ
8aL
8ddJ
=
8aL
8bJ
8bL
8aJ
8aL
8gJ
=
4a
8aL
8gJ
8aL
8gJ
!!linebreak:original
=
4b
4cc
4dd
=
4.ee
8ff#
8ggL
8ff#J
=
8ddL
8eeJ
8eeL
8ddJ
8bL
8gJ
=
4a
8aL
8gJ
8aL
8ddJ
=
8aL
8bJ
8bL
8aJ
8aL
8gJ
=
4a
8aL
8gJ
8aL
8ddJ
=
8aL
8bJ
8bL
8aJ
8aL
8gJ
!!linebreak:original
=
4a
8aL
8gJ
16f#LL
16eJ
8dJ
=
[4.e
4.e_
=
4.e]
4.ryy
=||
*M3/4
8ff#
8gg
8ff#
=
8ddL
8eeJ
8eeL
8ddJ
8bL
8gJ
=
4a
8aL
8gJ
8aL
8ddJ
=
8aL
8bJ
8bL
8aJ
8aL
8gJ
!!linebreak:original
=
4a
8aL
8gJ
8aL
8ddJ
=
8aL
8bJ
8bL
8aJ
8aL
8gJ
=
4a
8aL
8gJ
8aL
8gJ
=
4b
4cc
4dd
=
4.ee
8ff#
8ggL
8ff#J
=
8ddL
8eeJ
8eeL
8ddJ
8bL
8gJ
=
4a
8aL
8gJ
8aL
8ddJ
!!linebreak:original
=
8aL
8bJ
8bL
8aJ
8aL
8gJ
=
4a
8aL
8gJ
8aL
8ddJ
=
8aL
8bJ
8bL
8aJ
8aL
8gJ
=
4a
8aL
8gJ
16f#LL
16eJ
8dJ
=
[4.e
4.e_
=
4.e]
4.ryy
=||
8f#
8g
8f#
4.ryy
!!linebreak:original
=
4a
8aL
8gJ
8aL
8gJ
=
8aL
8bJ
8bL
8aJ
8bL
8ccJ
=
8ddL
8eeJ
8ddL
8ccJ
8bL
8aJ
=
8bL
8gJ
8bL
8ccJ
8bL
8aJ
=
8ddL
8eeJ
8ddL
8ccJ
8bL
8aJ
=
8bL
8gJ
8bL
8ccJ
8bL
8aJ
=
4b
4cc
4dd
!!linebreak:original
=
4.ee
8ff#
8ggL
8ff#J
=
8ddL
8eeJ
8eeL
8ddJ
8bL
8gJ
=
4a
8aL
8gJ
8aL
8ddJ
=
8aL
8bJ
8bL
8aJ
8aL
8gJ
=
4a
8aL
8gJ
8aL
8ddJ
=
8aL
8bJ
8bL
8aJ
8aL
8gJ
=
4a
8aL
8gJ
8eL
8dJ
!!linebreak:original
=
[4.e
4.e_
=
4.e]
4.ryy
=||
*M3/4
8ff#
8gg
8ff#
=
8ddL
8eeJ
8eeL
8ddJ
8bL
8gJ
=
4a
8aL
8gJ
8aL
8ddJ
=
8aL
8bJ
8bL
8aJ
8aL
8gJ
=
4a
8aL
8gJ
8aL
8ddJ
!!linebreak:original
=
8aL
8bJ
8bL
8aJ
8aL
8gJ
=
4a
8aL
8gJ
8aL
8gJ
=
4b
4cc
4dd
=
4.ee
8ff#
8ggL
8ff#J
=
8ddL
8eeJ
8eeL
8ddJ
8bL
8gJ
=
4a
8aL
8gJ
8aL
8ddJ
=
8aL
8bJ
8bL
8aJ
8aL
8gJ
!!linebreak:original
=
4a
8aL
8gJ
8aL
8ddJ
=
8aL
8bJ
8bL
8aJ
8aL
8gJ
=
4a
8aL
8gJ
16f#LL
16eJ
8dJ
=
[4.e
4.e_
=
4.e]
4.ryy
=||
*M3/4
8ff#
8gg
8ff#
=
8ddL
8eeJ
8eeL
8ddJ
8bL
8gJ
!!pagebreak:original
=
4a
8aL
8gJ
8aL
8ddJ
=
8aL
8bJ
8bL
8aJ
8aL
8gJ
=
4a
8aL
8gJ
8aL
8ddJ
=
8aL
8bJ
8bL
8aJ
8aL
8gJ
=
4a
8aL
8gJ
8aL
8gJ
=
4b
4cc
4dd
=
4.ee
8ff#
8ggL
8ff#J
!!linebreak:original
=
8ddL
8eeJ
8eeL
8ddJ
8bL
8gJ
=
4a
8aL
8gJ
8aL
8ddJ
=
8aL
8bJ
8bL
8aJ
8aL
8gJ
=
4a
8aL
8gJ
8aL
8ddJ
=
8aL
8bJ
8bL
8aJ
8aL
8gJ
=
4a
8aL
8gJ
16f#LL
16eJ
8dJ
=
[4.e
4.e_
!!linebreak:original
=
4.e]
4.ryy
=||
8f#
8g
8f#
4.ryy
=
4a
8aL
8gJ
8aL
8gJ
=
8aL
8bJ
8bL
8aJ
8bL
8ccJ
=
8ddL
8eeJ
8ddL
8ccJ
8bL
8aJ
=
8bL
8gJ
8bL
8ccJ
8bL
8aJ
=
8ddL
8eeJ
8ddL
8ccJ
8bL
8aJ
!!linebreak:original
=
8bL
8gJ
8bL
8ccJ
8bL
8aJ
=
4b
4cc
4dd
=
4.ee
8ff#
8ggL
8ff#J
=
8ddL
8eeJ
8eeL
8ddJ
8bL
8gJ
=
4a
8aL
8gJ
8aL
8ddJ
=
8aL
8bJ
8bL
8aJ
8aL
8gJ
=
4a
8aL
8gJ
8aL
8ddJ
!!linebreak:original
=
8aL
8bJ
8bL
8aJ
8aL
8gJ
=
4a
8aL
8gJ
8eL
8dJ
=
[4.e
4.e_
=
4.e]
4.ryy
=||
8dd
8b
8dd
4.ryy
=
8ggL
8ddJ
8bL
8ddJ
8bL
8ddJ
=
8ggL
8ddJ
8bL
8ddJ
8aL
8ddJ
=
8ff#L
8ddJ
8aL
8f#J
8aL
8ddJ
!!linebreak:original
=
8ff#L
8ddJ
8bL
8ddJ
8gL
8ddJ
=
8eeL
8ddJ
8bL
8ddJ
8eeL
8ddJ
=
8ff#L
8ddJ
8bL
8ddJ
8gL
8ddJ
=
8f#L
8ddJ
8gL
8ddJ
8f#L
8ddJ
=
4.e
8dd
8bL
8ddJ
=
8gL
8ddJ
8gL
8ddJ
8aL
8ddJ
=
8f#L
8ddJ
8f#L
8ddJ
8gL
8ddJ
!!linebreak:original
=
8eL
8ddJ
8eL
8ddJ
8f#L
8ddJ
=
8gL
8ddJ
8aL
8ddJ
8aL
8ddJ
=
8aL
8bJ
8bL
8aJ
8aL
8gJ
=
8aL
8ddJ
8aL
8f#J
8gL
8ddJ
=
8f#L
8gJ
8ddL
8f#J
8gL
8aJ
=
8bL
8ccJ
8bL
8aJ
8bL
8ddJ
!!linebreak:original
=
8gL
8ddJ
8gL
8ddJ
8aL
8ddJ
=
8f#L
8ddJ
8f#L
8ddJ
8gL
8ddJ
=
8eL
8ddJ
8eL
8ddJ
8f#L
8ddJ
=
8gL
8ddJ
8aL
8ddJ
8aL
8ddJ
=
8aL
8bJ
8bL
8aJ
8aL
8gJ
=
4a
8aL
8gJ
8aL
8gJ
=
4b
4cc
4dd
!!linebreak:original
=
4.ee
8ff#
8ggL
8ff#J
=
8ddL
8eeJ
8eeL
8ddJ
8bL
8gJ
=
4a
8aL
8gJ
8aL
8ddJ
=
8aL
8bJ
8bL
8aJ
8aL
8gJ
=
4a
8aL
8gJ
8aL
8ddJ
=
8aL
8bJ
8bL
8aJ
8aL
8gJ
=
4a
8aL
8gJ
16f#LL
16eJ
8dJ
!!linebreak:original
=
[4.e
4.e_
=
4.e]
4.ryy
=||
*M3/4
8ff#
8gg
8ff#
=
8ddL
8eeJ
8eeL
8ddJ
8bL
8gJ
=
4a
8aL
8gJ
8aL
8ddJ
=
8aL
8bJ
8bL
8aJ
8aL
8gJ
=
4a
8aL
8gJ
8aL
8ddJ
!!linebreak:original
=
8aL
8bJ
8bL
8aJ
8aL
8gJ
=
4a
8aL
8gJ
8aL
8gJ
=
4b
4cc
4dd
=
4.ee
8ff#
8ggL
8ff#J
=
8ddL
8eeJ
8eeL
8ddJ
8bL
8gJ
=
4a
8aL
8gJ
8aL
8ddJ
=
8aL
8bJ
8bL
8aJ
8aL
8gJ
!!pagebreak:original
=
4a
8aL
8gJ
8aL
8ddJ
=
8aL
8bJ
8bL
8aJ
8aL
8gJ
=
4a
8aL
8gJ
16f#LL
16eJ
8dJ
=
[4.e
4.e_
=
4.e]
4.ryy
=||
*M3/4
8ff#
8gg
8ff#
=
8ddL
8eeJ
8eeL
8ddJ
8bL
8gJ
!!linebreak:original
=
4a
8aL
8gJ
8aL
8ddJ
=
8aL
8bJ
8bL
8aJ
8aL
8gJ
=
4a
8aL
8gJ
8aL
8ddJ
=
8aL
8bJ
8bL
8aJ
8aL
8gJ
=
4a
8aL
8gJ
8aL
8gJ
=
4b
4cc
4dd
=
4.ee
8ff#
8ggL
8ff#J
!!linebreak:original
=
8ddL
8eeJ
8eeL
8ddJ
8bL
8gJ
=
4a
8aL
8gJ
8aL
8ddJ
=
8aL
8bJ
8bL
8aJ
8aL
8gJ
=
4a
8aL
8gJ
8aL
8ddJ
=
8aL
8bJ
8bL
8aJ
8aL
8gJ
=
4a
8aL
8gJ
16f#LL
16eJ
8dJ
=
[4.e
4.e_
!!linebreak:original
=
4.e]
4.ryy
=||
8f#
8g
8f#
4.ryy
=
4a
8aL
8gJ
8aL
8gJ
=
8aL
8bJ
8bL
8aJ
8bL
8ccJ
=
8ddL
8eeJ
8ddL
8ccJ
8bL
8aJ
=
8bL
8gJ
8bL
8ccJ
8bL
8aJ
=
8ddL
8eeJ
8ddL
8ccJ
8bL
8aJ
!!linebreak:original
=
8bL
8gJ
8bL
8ccJ
8bL
8aJ
=
4b
4cc
4dd
=
4.ee
8ff#
8ggL
8ff#J
=
8ddL
8eeJ
8eeL
8ddJ
8bL
8gJ
=
4a
8aL
8gJ
8aL
8ddJ
=
8aL
8bJ
8bL
8aJ
8aL
8gJ
=
4a
8aL
8gJ
8aL
8ddJ
!!linebreak:original
=
8aL
8bJ
8bL
8aJ
8aL
8gJ
=
4a
8aL
8gJ
8eL
8dJ
=
[4.e
4.e_
=
4.e]
4.ryy
=||
*M3/4
8ff#
8gg
8ff#
=
8ddL
8eeJ
8eeL
8ddJ
8bL
8gJ
=
4a
8aL
8gJ
8aL
8ddJ
!!linebreak:original
=
8aL
8bJ
8bL
8aJ
8aL
8gJ
=
4a
8aL
8gJ
8aL
8ddJ
=
8aL
8bJ
8bL
8aJ
8aL
8gJ
=
4a
8aL
8gJ
8aL
8gJ
=
4b
4cc
4dd
=
4.ee
8ff#
8ggL
8ff#J
=
8ddL
8eeJ
8eeL
8ddJ
8bL
8gJ
!!linebreak:original
=
4a
8aL
8gJ
8aL
8ddJ
=
8aL
8bJ
8bL
8aJ
8aL
8gJ
=
4a
8aL
8gJ
8aL
8ddJ
=
8aL
8bJ
8bL
8aJ
8aL
8gJ
=
4a
8aL
8gJ
16f#LL
16eJ
8dJ
=
[4.e
4.e_
=
4.e]
4.ryy
!!linebreak:original
=||
*M3/4
8ff#
8gg
8ff#
=
8ddL
8eeJ
8eeL
8ddJ
8bL
8gJ
=
4a
8aL
8gJ
8aL
8ddJ
=
8aL
8bJ
8bL
8aJ
8aL
8gJ
=
4a
8aL
8gJ
8aL
8ddJ
=
8aL
8bJ
8bL
8aJ
8aL
8gJ
=
4a
8aL
8gJ
8aL
8gJ
!!linebreak:original
=
4b
4cc
4dd
=
4.ee
8ff#
8ggL
8ff#J
=
8ddL
8eeJ
8eeL
8ddJ
8bL
8gJ
=
4a
8aL
8gJ
8aL
8ddJ
=
8aL
8bJ
8bL
8aJ
8aL
8gJ
=
4a
8aL
8gJ
8aL
8ddJ
=
8aL
8bJ
8bL
8aJ
8aL
8gJ
!!linebreak:original
=
4a
8aL
8gJ
16f#LL
16eJ
8dJ
=
[4.e
4.e_
=
4.e]
4.ryy
=||
8f#
8g
8f#
4.ryy
=
4a
8aL
8gJ
8aL
8gJ
=
8aL
8bJ
8bL
8aJ
8bL
8ccJ
=
8ddL
8eeJ
8ddL
8ccJ
8bL
8aJ
!!pagebreak:original
=
8bL
8gJ
8bL
8ccJ
8bL
8aJ
=
8ddL
8eeJ
8ddL
8ccJ
8bL
8aJ
=
8bL
8gJ
8bL
8ccJ
8bL
8aJ
=
4b
4cc
4dd
=
4.ee
8ff#
8ggL
8ff#J
=
8ddL
8eeJ
8eeL
8ddJ
8bL
8gJ
=
4a
8aL
8gJ
8aL
8ddJ
!!linebreak:original
=
8aL
8bJ
8bL
8aJ
8aL
8gJ
=
4a
8aL
8gJ
8aL
8ddJ
=
8aL
8bJ
8bL
8aJ
8aL
8gJ
=
4a
8aL
8gJ
8eL
8dJ
=
[4.e
4.e_
=
4.e]
4.ryy
=||
8dd
8b
8dd
4.ryy
=
8ggL
8ddJ
8bL
8ddJ
8bL
8ddJ
!!linebreak:original
=
8ggL
8ddJ
8bL
8ddJ
8aL
8ddJ
=
8ff#L
8ddJ
8aL
8f#J
8aL
8ddJ
=
8ff#L
8ddJ
8bL
8ddJ
8gL
8ddJ
=
8eeL
8ddJ
8bL
8ddJ
8eeL
8ddJ
=
8ff#L
8ddJ
8bL
8ddJ
8gL
8ddJ
=
8f#L
8ddJ
8gL
8ddJ
8f#L
8ddJ
=
4.e
8dd
8bL
8ddJ
!!linebreak:original
=
8gL
8ddJ
8gL
8ddJ
8aL
8ddJ
=
8f#L
8ddJ
8f#L
8ddJ
8gL
8ddJ
=
8eL
8ddJ
8eL
8ddJ
8f#L
8ddJ
=
8gL
8ddJ
8aL
8ddJ
8aL
8ddJ
=
8aL
8bJ
8bL
8aJ
8aL
8gJ
=
8aL
8ddJ
8aL
8f#J
8gL
8ddJ
!!linebreak:original
=
8f#L
8gJ
8ddL
8f#J
8gL
8aJ
=
8bL
8ccJ
8bL
8aJ
8bL
8ddJ
=
8gL
8ddJ
8gL
8ddJ
8aL
8ddJ
=
8f#L
8ddJ
8f#L
8ddJ
8gL
8ddJ
=
8eL
8ddJ
8eL
8ddJ
8f#L
8ddJ
=
8gL
8ddJ
8aL
8ddJ
8aL
8ddJ
!!linebreak:original
=
8aL
8bJ
8bL
8aJ
8aL
8gJ
=
4a
8aL
8gJ
8aL
8gJ
=
4b
4cc
4dd
=
4.ee
8ff#
8ggL
8ff#J
=
8ddL
8eeJ
8eeL
8ddJ
8bL
8gJ
=
4a
8aL
8gJ
8aL
8ddJ
=
8aL
8bJ
8bL
8aJ
8aL
8gJ
!!linebreak:original
=
4a
8aL
8gJ
8aL
8ddJ
=
8aL
8bJ
8bL
8aJ
8aL
8gJ
=
4a
8aL
8gJ
16f#LL
16eJ
8dJ
=
[4.e
4.e_
=
4.e]
4.ryy
=||
8ff#
8gg
8ff#
4.ryy
=
8ddL
8eeJ
8eeL
8ddJ
8bL
8gJ
=
4a
8aL
8gJ
8aL
8ddJ
!!linebreak:original
=
8aL
8bJ
8bL
8aJ
8aL
8gJ
=
4a
8aL
8gJ
8aL
8ddJ
=
8aL
8bJ
8bL
8aJ
8aL
8gJ
=
4a
8aL
8gJ
8aL
8gJ
=
4b
4cc
4dd
=
4.ee
8ff#
8ggL
8ff#J
=
8ddL
8eeJ
8eeL
8ddJ
8bL
8gJ
!!linebreak:original
=
4a
8aL
8gJ
8aL
8ddJ
=
8aL
8bJ
8bL
8aJ
8aL
8gJ
=
4a
8aL
8gJ
8aL
8ddJ
=
8aL
8bJ
8bL
8aJ
8aL
8gJ
=
4a
8aL
8gJ
16f#LL
16eJ
8dJ
=
[4.e
4.e_
=
4.e]
4.ryy
!!linebreak:original
=||
*M3/4
8ff#
8gg
8ff#
=
8ddL
8eeJ
8eeL
8ddJ
8bL
8gJ
=
4a
8aL
8gJ
8aL
8ddJ
=
8aL
8bJ
8bL
8aJ
8aL
8gJ
=
4a
8aL
8gJ
8aL
8ddJ
=
8aL
8bJ
8bL
8aJ
8aL
8gJ
=
4a
8aL
8gJ
8aL
8gJ
!!linebreak:original
=
4b
4cc
4dd
=
4.ee
8ff#
8ggL
8ff#J
=
8ddL
8eeJ
8eeL
8ddJ
8bL
8gJ
=
4a
8aL
8gJ
8aL
8ddJ
=
8aL
8bJ
8bL
8aJ
8aL
8gJ
=
4a
8aL
8gJ
8aL
8ddJ
=
8aL
8bJ
8bL
8aJ
8aL
8gJ
!!pagebreak:original
=
4a
8aL
8gJ
16f#LL
16eJ
8dJ
=
[4.e
4.e_
=
4.e]
4.ryy
=||
*M3/4
8ff#
8gg
8ff#
=
8ddL
8eeJ
8eeL
8ddJ
8bL
8gJ
=
4a
8aL
8gJ
8aL
8ddJ
=
8aL
8bJ
8bL
8aJ
8aL
8gJ
!!linebreak:original
=
4a
8aL
8gJ
8aL
8ddJ
=
8aL
8bJ
8bL
8aJ
8aL
8gJ
=
4a
8aL
8gJ
8aL
8gJ
=
4b
4cc
4dd
=
4.ee
8ff#
8ggL
8ff#J
=
8ddL
8eeJ
8eeL
8ddJ
8bL
8gJ
=
4a
8aL
8gJ
8aL
8ddJ
!!linebreak:original
=
8aL
8bJ
8bL
8aJ
8aL
8gJ
=
4a
8aL
8gJ
8aL
8ddJ
=
8aL
8bJ
8bL
8aJ
8aL
8gJ
=
4a
8aL
8gJ
16f#LL
16eJ
8dJ
=
[4.e
4.e_
=
4.e]
4.ryy
=||
8f#
8g
8f#
4.ryy
!!linebreak:original
=
4a
8aL
8gJ
8aL
8gJ
=
8aL
8bJ
8bL
8aJ
8bL
8ccJ
=
8ddL
8eeJ
8ddL
8ccJ
8bL
8aJ
=
8bL
8gJ
8bL
8ccJ
8bL
8aJ
=
8ddL
8eeJ
8ddL
8ccJ
8bL
8aJ
=
8bL
8gJ
8bL
8ccJ
8bL
8aJ
=
4b
4cc
4dd
!!linebreak:original
=
4.ee
8ff#
8ggL
8ff#J
=
8ddL
8eeJ
8eeL
8ddJ
8bL
8gJ
=
4a
8aL
8gJ
8aL
8ddJ
=
8aL
8bJ
8bL
8aJ
8aL
8gJ
=
4a
8aL
8gJ
8aL
8ddJ
=
8aL
8bJ
8bL
8aJ
8aL
8gJ
=
4a
8aL
8gJ
8eL
8dJ
!!linebreak:original
=
[4.e
4.e_
=
4.e]
4.ryy
=||
*M3/4
8ff#
8gg
8ff#
=
8ddL
8eeJ
8eeL
8ddJ
8bL
8gJ
=
4a
8aL
8gJ
8aL
8ddJ
=
8aL
8bJ
8bL
8aJ
8aL
8gJ
=
4a
8aL
8gJ
8aL
8ddJ
!!linebreak:original
=
8aL
8bJ
8bL
8aJ
8aL
8gJ
=
4a
8aL
8gJ
8aL
8gJ
=
4b
4cc
4dd
=
4.ee
8ff#
8ggL
8ff#J
=
8ddL
8eeJ
8eeL
8ddJ
8bL
8gJ
=
4a
8aL
8gJ
8aL
8ddJ
=
8aL
8bJ
8bL
8aJ
8aL
8gJ
!!linebreak:original
=
4a
8aL
8gJ
8aL
8ddJ
=
8aL
8bJ
8bL
8aJ
8aL
8gJ
=
4a
8aL
8gJ
16f#LL
16eJ
8dJ
=
[4.e
4.e_
=
4.e]
4.ryy
=||
*M3/4
8ff#
8gg
8ff#
=
8ddL
8eeJ
8eeL
8ddJ
8bL
8gJ
!!linebreak:original
=
4a
8aL
8gJ
8aL
8ddJ
=
8aL
8bJ
8bL
8aJ
8aL
8gJ
=
4a
8aL
8gJ
8aL
8ddJ
=
8aL
8bJ
8bL
8aJ
8aL
8gJ
=
4a
8aL
8gJ
8aL
8gJ
=
4b
4cc
4dd
=
4.ee
8ff#
8ggL
8ff#J
!!linebreak:original
=
8ddL
8eeJ
8eeL
8ddJ
8bL
8gJ
=
4a
8aL
8gJ
8aL
8ddJ
=
8aL
8bJ
8bL
8aJ
8aL
8gJ
=
4a
8aL
8gJ
8aL
8ddJ
=
8aL
8bJ
8bL
8aJ
8aL
8gJ
=
4a
8aL
8gJ
16f#LL
16eJ
8dJ
=
[4.e
4.e_
!!linebreak:original
=
4.e]
4.ryy
=||
8f#
8g
8f#
4.ryy
=
4a
8aL
8gJ
8aL
8gJ
=
8aL
8bJ
8bL
8aJ
8bL
8ccJ
=
8ddL
8eeJ
8ddL
8ccJ
8bL
8aJ
=
8bL
8gJ
8bL
8ccJ
8bL
8aJ
=
8ddL
8eeJ
8ddL
8ccJ
8bL
8aJ
!!pagebreak:original
=
8bL
8gJ
8bL
8ccJ
8bL
8aJ
=
4b
4cc
4dd
=
4.ee
8ff#
8ggL
8ff#J
=
8ddL
8eeJ
8eeL
8ddJ
8bL
8gJ
=
4a
8aL
8gJ
8aL
8ddJ
=
8aL
8bJ
8bL
8aJ
8aL
8gJ
=
4a
8aL
8gJ
8aL
8ddJ
!!linebreak:original
=
8aL
8bJ
8bL
8aJ
8aL
8gJ
=
4a
8aL
8gJ
8eL
8dJ
=
[4.e
4.e_
=
4.e]
4.ryy
=||
8dd
8b
8dd
4.ryy
=
8ggL
8ddJ
8bL
8ddJ
8bL
8ddJ
=
8ggL
8ddJ
8bL
8ddJ
8aL
8ddJ
=
8ff#L
8ddJ
8aL
8f#J
8aL
8ddJ
!!linebreak:original
=
8ff#L
8ddJ
8bL
8ddJ
8gL
8ddJ
=
8eeL
8ddJ
8bL
8ddJ
8eeL
8ddJ
=
8ff#L
8ddJ
8bL
8ddJ
8gL
8ddJ
=
8f#L
8ddJ
8gL
8ddJ
8f#L
8ddJ
=
4.e
8dd
8bL
8ddJ
=
8gL
8ddJ
8gL
8ddJ
8aL
8ddJ
=
8f#L
8ddJ
8f#L
8ddJ
8gL
8ddJ
!!linebreak:original
=
8eL
8ddJ
8eL
8ddJ
8f#L
8ddJ
=
8gL
8ddJ
8aL
8ddJ
8aL
8ddJ
=
8aL
8bJ
8bL
8aJ
8aL
8gJ
=
8aL
8ddJ
8aL
8f#J
8gL
8ddJ
=
8f#L
8gJ
8ddL
8f#J
8gL
8aJ
=
8bL
8ccJ
8bL
8aJ
8bL
8ddJ
!!linebreak:original
=
8gL
8ddJ
8gL
8ddJ
8aL
8ddJ
=
8f#L
8ddJ
8f#L
8ddJ
8gL
8ddJ
=
8eL
8ddJ
8eL
8ddJ
8f#L
8ddJ
=
8gL
8ddJ
8aL
8ddJ
8aL
8ddJ
=
8aL
8bJ
8bL
8aJ
8aL
8gJ
=
4a
8aL
8gJ
8aL
8gJ
=
4b
4cc
4dd
!!linebreak:original
=
4.ee
8ff#
8ggL
8ff#J
=
8ddL
8eeJ
8eeL
8ddJ
8bL
8gJ
=
4a
8aL
8gJ
8aL
8ddJ
=
8aL
8bJ
8bL
8aJ
8aL
8gJ
=
4a
8aL
8gJ
8aL
8ddJ
=
8aL
8bJ
8bL
8aJ
8aL
8gJ
=
4a
8aL
8gJ
16f#LL
16eJ
8dJ
!!linebreak:original
=
[4.e
4.e_
=
4.e]
4.ryy
=||
*M3/4
8ff#
8gg
8ff#
=
8ddL
8eeJ
8eeL
8ddJ
8bL
8gJ
=
4a
8aL
8gJ
8aL
8ddJ
=
8aL
8bJ
8bL
8aJ
8aL
8gJ
=
4a
8aL
8gJ
8aL
8ddJ
!!linebreak:original
=
8aL
8bJ
8bL
8aJ
8aL
8gJ
=
4a
8aL
8gJ
8aL
8gJ
=
4b
4cc
4dd
=
4.ee
8ff#
8ggL
8ff#J
=
8ddL
8eeJ
8eeL
8ddJ
8bL
8gJ
=
4a
8aL
8gJ
8aL
8ddJ
=
8aL
8bJ
8bL
8aJ
8aL
8gJ
!!linebreak:original
=
4a
8aL
8gJ
8aL
8ddJ
=
8aL
8bJ
8bL
8aJ
8aL
8gJ
=
4a
8aL
8gJ
16f#LL
16eJ
8dJ
=
[4.e
4.e_
=
4.e]
4.ryy
=||
*M3/4
8ff#
8gg
8ff#
=
8ddL
8eeJ
8eeL
8ddJ
8bL
8gJ
!!linebreak:original
=
4a
8aL
8gJ
8aL
8ddJ
=
8aL
8bJ
8bL
8aJ
8aL
8gJ
=
4a
8aL
8gJ
8aL
8ddJ
=
8aL
8bJ
8bL
8aJ
8aL
8gJ
=
4a
8aL
8gJ
8aL
8gJ
=
4b
4cc
4dd
=
4.ee
8ff#
8ggL
8ff#J
!!linebreak:original
=
8ddL
8eeJ
8eeL
8ddJ
8bL
8gJ
=
4a
8aL
8gJ
8aL
8ddJ
=
8aL
8bJ
8bL
8aJ
8aL
8gJ
=
4a
8aL
8gJ
8aL
8ddJ
=
8aL
8bJ
8bL
8aJ
8aL
8gJ
=
4a
8aL
8gJ
16f#LL
16eJ
8dJ
=
[4.e
4.e_
!!pagebreak:original
=
4.e]
4.ryy
=||
8f#
8g
8f#
4.ryy
=
4a
8aL
8gJ
8aL
8gJ
=
8aL
8bJ
8bL
8aJ
8bL
8ccJ
=
8ddL
8eeJ
8ddL
8ccJ
8bL
8aJ
=
8bL
8gJ
8bL
8ccJ
8bL
8aJ
=
8ddL
8eeJ
8ddL
8ccJ
8bL
8aJ
!!linebreak:original
=
8bL
8gJ
8bL
8ccJ
8bL
8aJ
=
4b
4cc
4dd
=
4.ee
8ff#
8ggL
8ff#J
=
8ddL
8eeJ
8eeL
8ddJ
8bL
8gJ
=
4a
8aL
8gJ
8aL
8ddJ
=
8aL
8bJ
8bL
8aJ
8aL
8gJ
=
4a
8aL
8gJ
8aL
8ddJ
!!linebreak:original
=
8aL
8bJ
8bL
8aJ
8aL
8gJ
=
4a
8aL
8gJ
8eL
8dJ
=
[4.e
4.e_
=
4.e]
4.ryy
=||
*M3/4
8ff#
8gg
8ff#
=
8ddL
8eeJ
8eeL
8ddJ
8bL
8gJ
=
4a
8aL
8gJ
8aL
8ddJ
!!linebreak:original
=
8aL
8bJ
8bL
8aJ
8aL
8gJ
=
4a
8aL
8gJ
8aL
8ddJ
=
8aL
8bJ
8bL
8aJ
8aL
8gJ
=
4a
8aL
8gJ
8aL
8gJ
=
4b
4cc
4dd
=
4.ee
8ff#
8ggL
8ff#J
=
8ddL
8eeJ
8eeL
8ddJ
8bL
8gJ
!!linebreak:original
=
4a
8aL
8gJ
8aL
8ddJ
=
8aL
8bJ
8bL
8aJ
8aL
8gJ
=
4a
8aL
8gJ
8aL
8ddJ
=
8aL
8bJ
8bL
8aJ
8aL
8gJ
=
4a
8aL
8gJ
16f#LL
16eJ
8dJ
=
[4.e
4.e_
=
4.e]
4.ryy
!!linebreak:original
=||
*M3/4
8ff#
8gg
8ff#
=
8ddL
8eeJ
8eeL
8ddJ
8bL
8gJ
=
4a
8aL
8gJ
8aL
8ddJ
=
8aL
8bJ
8bL
8aJ
8aL
8gJ
=
4a
8aL
8gJ
8aL
8ddJ
=
8aL
8bJ
8bL
8aJ
8aL
8gJ
=
4a
8aL
8gJ
8aL
8gJ
!!linebreak:original
=
4b
4cc
4dd
=
4.ee
8ff#
8ggL
8ff#J
=
8ddL
8eeJ
8eeL
8ddJ
8bL
8gJ
=
4a
8aL
8gJ
8aL
8ddJ
=
8aL
8bJ
8bL
8aJ
8aL
8gJ
=
4a
8aL
8gJ
8aL
8ddJ
=
8aL
8bJ
8bL
8aJ
8aL
8gJ
!!linebreak:original
=
4a
8aL
8gJ
16f#LL
16eJ
8dJ
=
[4.e
4.e_
=
4.e]
4.ryy
=||
8f#
8g
8f#
4.ryy
=
4a
8aL
8gJ
8aL
8gJ
=
8aL
8bJ
8bL
8aJ
8bL
8ccJ
=
8ddL
8eeJ
8ddL
8ccJ
8bL
8aJ
!!linebreak:original
=
8bL
8gJ
8bL
8ccJ
8bL
8aJ
=
8ddL
8eeJ
8ddL
8ccJ
8bL
8aJ
=
8bL
8gJ
8bL
8ccJ
8bL
8aJ
=
4b
4cc
4dd
=
4.ee
8ff#
8ggL
8ff#J
=
8ddL
8eeJ
8eeL
8ddJ
8bL
8gJ
=
4a
8aL
8gJ
8aL
8ddJ
!!linebreak:original
=
8aL
8bJ
8bL
8aJ
8aL
8gJ
=
4a
8aL
8gJ
8aL
8ddJ
=
8aL
8bJ
8bL
8aJ
8aL
8gJ
=
4a
8aL
8gJ
8eL
8dJ
=
[4.e
4.e_
=
4.e]
4.ryy
=||
8dd
8b
8dd
4.ryy
=
8ggL
8ddJ
8bL
8ddJ
8bL
8ddJ
!!linebreak:original
=
8ggL
8ddJ
8bL
8ddJ
8aL
8ddJ
=
8ff#L
8ddJ
8aL
8f#J
8aL
8ddJ
=
8ff#L
8ddJ
8bL
8ddJ
8gL
8ddJ
=
8eeL
8ddJ
8bL
8ddJ
8eeL
8ddJ
=
8ff#L
8ddJ
8bL
8ddJ
8gL
8ddJ
=
8f#L
8ddJ
8gL
8ddJ
8f#L
8ddJ
=
4.e
8dd
8bL
8ddJ
!!pagebreak:original
=
8gL
8ddJ
8gL
8ddJ
8aL
8ddJ
=
8f#L
8ddJ
8f#L
8ddJ
8gL
8ddJ
=
8eL
8ddJ
8eL
8ddJ
8f#L
8ddJ
=
8gL
8ddJ
8aL
8ddJ
8aL
8ddJ
=
8aL
8bJ
8bL
8aJ
8aL
8gJ
=
8aL
8ddJ
8aL
8f#J
8gL
8ddJ
!!linebreak:original
=
8f#L
8gJ
8ddL
8f#J
8gL
8aJ
=
8bL
8ccJ
8bL
8aJ
8bL
8ddJ
=
8gL
8ddJ
8gL
8ddJ
8aL
8ddJ
=
8f#L
8ddJ
8f#L
8ddJ
8gL
8ddJ
=
8eL
8ddJ
8eL
8ddJ
8f#L
8ddJ
=
8gL
8ddJ
8aL
8ddJ
8aL
8ddJ
!!linebreak:original
=
8aL
8bJ
8bL
8aJ
8aL
8gJ
=
4a
8aL
8gJ
8aL
8gJ
=
4b
4cc
4dd
=
4.ee
8ff#
8ggL
8ff#J
=
8ddL
8eeJ
8eeL
8ddJ
8bL
8gJ
=
4a
8aL
8gJ
8aL
8ddJ
=
8aL
8bJ
8bL
8aJ
8aL
8gJ
!!linebreak:original
=
4a
8aL
8gJ
8aL
8ddJ
=
8aL
8bJ
8bL
8aJ
8aL
8gJ
=
4a
8aL
8gJ
16f#LL
16eJ
8dJ
=
[4.e
4.e_
=
4.e]
4.ryy
=||
8ff#
8gg
8ff#
4.ryy
=
8ddL
8eeJ
8eeL
8ddJ
8bL
8gJ
=
4a
8aL
8gJ
8aL
8ddJ
!!linebreak:original
=
8aL
8bJ
8bL
8aJ
8aL
8gJ
=
4a
8aL
8gJ
8aL
8ddJ
=
8aL
8bJ
8bL
8aJ
8aL
8gJ
=
4a
8aL
8gJ
8aL
8gJ
=
4b
4cc
4dd
=
4.ee
8ff#
8ggL
8ff#J
=
8ddL
8eeJ
8eeL
8ddJ
8bL
8gJ
!!linebreak:original
=
4a
8aL
8gJ
8aL
8ddJ
=
8aL
8bJ
8bL
8aJ
8aL
8gJ
=
4a
8aL
8gJ
8aL
8ddJ
=
8aL
8bJ
8bL
8aJ
8aL
8gJ
=
4a
8aL
8gJ
16f#LL
16eJ
8dJ
=
[4.e
4.e_
=
4.e]
4.ryy
=||
*-
